!!!COM: Doeseb, Axali
!!!CDT: b.1954
!!!OTL: National Anthem, Namibia
!!!ENC: Davis, Matthew J.
!!Vocal Line Only
**kern
*clefG2
*k[]
*C:
*M4/4
=1-
8e
4e
8e
4e
8f
8g
=2
4.a
8g
4f
8g
8f
=3
4.e
8e
4e
4g
=4
2.d
4r
=5
4.e
8e
4e
8f
8g
=6
4.a
8g
4f
8g
8f
=7
4.e
8e
4e
4g
=8
2.d
8e
8d
=9
4.c
8c
4.d
8d
=10
4e
4e
2f
=11
4e
8e
8e
4d
8d
8e
=12
2.d
8e
8d
=13
4.c
8c
8d
8d
4d
=14
4e
8e
8e
2f
=15
4e
8e
8e
4d
8d
8e
=16
2d
2d
=17
4g
8g
8g
4.g
8g
=18
4a
4a
2a
=19
4cc
8cc
8cc
4cc
8b
8a
=20
4g
8g
8e
2d
=21
!Chorus
4g
8g
8g
2g
=22
4a
4a
2a
=23
4cc
8cc
8cc
4cc
8cc
8dd
=24
2ee
4.dd
8cc
=25
1cc
==|!
*-
